icons/menu-unfold-line.svg

<svg viewBox="0 0 24 24" fill="currentColor" xmlns="http://www.w3.org/2000/svg"><path d="M21 17.9995V19.9995H3V17.9995H21ZM17.4038 3.90332L22 8.49951L17.4038 13.0957L15.9896 11.6815L19.1716 8.49951L15.9896 5.31753L17.4038 3.90332ZM12 10.9995V12.9995H3V10.9995H12ZM12 3.99951V5.99951H3V3.99951H12Z"/></svg>

<svg xmlns="http://www.w3.org/2000/svg" viewBox="0 0 24 24">
    <g>
        <path fill="none" d="M0 0H24V24H0z"/>
        <path d="M21 18v2H3v-2h18zM17.404 3.904L22 8.5l-4.596 4.596-1.414-1.414L19.172 8.5 15.99 5.318l1.414-1.414zM12 11v2H3v-2h9zm0-7v2H3V4h9z"/>
    </g>
</svg>
